!!!!SEGMENT: pl-wn--sd-xvi-qu-273--014_gomolka-mikolaj--glupi-mowi-w-sercu-swoim.krn
!!!cenid: 15xx:219
!!!COM: Gomółka, Mikołaj
!!!COM-rismid: pe30013343
!!!CDT: ~1535->1591/04/30
!!!CNT: Polish
!!!GTL: Melodiae na psalterz polski
!!!OTL: XIV. Głupi mówi w sercu swoim:
!!!ONB: Ps. XIIII. Dixit insipiens in corde suo.
!!!PDT: 1580
!!!AGN: Sacred
!!!SMS-siglum: PL-Wn
!!!SMS-shelfmark: SD XVI.Qu.273
!!!SMS-shelfwork: 014 G
!!!NIFC-rismid:
!!!ONB-nifc: Melodiae na psalterz polski
!!!ONB: There are two page 16s in the volume, this work starts on the second 16v.
**kern	**text	**kern	**text	**kern	**text	**kern	**text
*part4	*part4	*part3	*part3	*part2	*part2	*part1	*part1
*staff4	*staff4	*staff3	*staff3	*staff2	*staff2	*staff1	*staff1
*clefF4	*	*clefC3	*	*clefC3	*	*clefC1	*
*k[b-]	*	*k[b-]	*	*k[b-]	*	*k[b-]	*
*g:	*	*g:	*	*g:	*	*g:	*
*M3/1	*	*M3/1	*	*M3/1	*	*M3/1	*
*met(C|3)	*	*met(C|3)	*	*met(C|3)	*	*met(C|3)	*
*I"BASSUS.	*	*I"TENOR.	*	*I"ALTUS.	*	*I"CANTUS.	*
*>[A,A,B]	*>[A,A,B]	*>[A,A,B]	*>[A,A,B]	*>[A,A,B]	*>[A,A,B]	*>[A,A,B]	*>[A,A,B]
*>A	*>A	*>A	*>A	*>A	*>A	*>A	*>A
*xywh-#50:1152,5344,5130,1270	*	*xywh-#50:1162,4073,5139,1270	*	*xywh-#50:1162,2813,5149,1241	*	*xywh-#50:1162,1161,5081,1631	*
=1-	=1	=1-	=1	=1-	=1	=1-	=1
*	*^	*	*^	*	*^	*	*^
1r	.	.	1r	.	.	1rg	.	.	1r	.	.
2r	.	.	2r	.	.	2r	.	.	2r	.	.
2D/	GŁu-	Nié-	2A/	Głu-	Nié-	2d\	Głu-	Nié-	2f#/	Głu-	Nié-
2D/	-pi	-m(ász)	2A/	-pi	-(mász)	2d\	-pi	-(mász)	2f#/	-pi	-m(ász)
2D/	mó-	bo-	2A/	mó-	bo-	2d\	mó-	bo-	2f#/	mó-	bo-
=2-	=2	=2	=2-	=2	=2	=2-	=2	=2	=2-	=2	=2
1D\	-(wi)	-gá	2.d\	-wi	-gá	2.f\	-wi	-gá	1a\	-wi	-(gá)
.	.	.	4c\	.	.	4e\	.	.	.	.	.
2.G\	w ser-	przécz	1B-/	w ser-	przécz	1d\	w ser-	przécz	2.b-\	w ser-	przécz
4F\	.	.	.	.	.	.	.	.	4a\	.	.
!LO:SIC:o=bemol na czwartej linii	!	!	!	!	!	!	!	!	!	!	!
2E-\	.	.	2.c/	.	.	1e-\X	-cu	sye	2g/	.	.
2C/	-cu	sye	.	.	.	.	.	.	1g\	-cu	sye
.	.	.	4B-/	.	.	.	.	.	.	.	.
=3-	=3	=3	=3-	=3	=3	=3-	=3	=3	=3-	=3	=3
1D\	.	.	4A/	.	.	2.d\	swo-	bo-	.	.	.
.	.	.	4G/	.	sye	.	.	.	.	.	.
.	.	.	2A/	-cu	.	.	.	.	2f/	.	.
.	.	.	.	.	.	4c/	.	.	.	.	.
2GG/	swo-	bo-	2G/	swo-	bo-	1Bn/	-im,	-im	2g/	swo-	bo-
2GG/	-im,	-im,	2G/	-im	-im?	.	.	.	2g/	-im,	-im?
*	*v	*v	*	*v	*v	*	*v	*v	*	*v	*v
=:|!	=:|!	=:|!	=:|!	=:|!	=:|!	=:|!	=:|!
*>B	*	*>B	*	*>B	*	*>B	*
2r	.	2r	.	2r	.	2r	.
2D/	W tym-	2d\	W ty(m-	2f\	W ty(m-	2a\	W tym-
=4-	=4	=4-	=4	=4-	=4	=4-	=4
2D/	-(że)	2d\	-że)	2f\	-że)	2a\	-że
2D/	cno-	2d\	cno-	2f\	cno-	2a\	cno-
2.A\	-tá	1c\	-(tá)	1e\	-(tá)	2.cc\	-(tá)
4G\	.	.	.	.	.	4b-\	.
1F\	zgá-	2c/	zgá-	2.f\	zgá-	1.a\	zgá-
.	.	1f\	-(słá)	.	.	.	.
.	.	.	.	4e\	.	.	.
=5-	=5	=5-	=5	=5-	=5	=5-	=5
1B-\	-(słá)	.	.	4d\	.	.	.
.	.	.	.	4c/	-słá	.	.
.	.	4e\	.	2d\	.	2g\	-(słá)
.	.	4d\	.	.	.	.	.
2A\	błę-	2c#/	błę-	2e\	błę-	2a\	błę-
2A\	-(dźie)	2c#X/	-(dźie)	2e\	-dźie,	2a\	-dźie,
2r	.	2r	.	2r	.	2r	.
2D/	A	2d\	A	2f\	A	2a\	A
*xywh-17r:552,5156,1728,1361	*	*	*	*xywh-17r:552,2616,1815,1371	*	*xywh-17r:523,1206,1863,1487	*
!LO:PB:g=original	!	!	!	!LO:PB:g=original	!	!LO:PB:g=original	!
=6-	=6	=6-	=6	=6-	=6	=6-	=6
2D/	nie-	2d\	nie-	2f\	nie-	2a\	nie-
2D/	-rzą-	2d\	-rzą-	2f\	-rzą-	2a\	-rzą-
!!!ONB: The tenor part has a page break different from other parts.
*	*	*xywh-17r:591,3968,1535,1265	*	*	*	*	*
!	!	!LO:PB:g=original	!	!	!	!	!
2.G\	-du	0B-/	-du	1d\	-du	2.b-\	-du
4F\	.	.	.	.	.	4a\	.
1E-\	peł-	.	peł-	1e-\	peł-	1g\	peł-
=7-	=7	=7-	=7	=7-	=7	=7-	=7
1C/	-(no)	2.c-\y	peł-	1e-\	-no	1g\	-no
.	.	4B-/	-no	.	.	.	.
1D\	wszę-	4A/	wszę-	2.d\	wszę-	1f/	wszę-
.	.	4G/	.	.	.	.	.
.	.	2A/	.	.	.	.	.
.	.	.	.	4c/	.	.	.
0GG/;	-dźie.	0G/;	-dźie.	0B-/	-dźie.	0g\;	-dźie:
==	==	==	==	==	==	==	==
*-	*-	*-	*-	*-	*-	*-	*-
!!!RDF**kern: l = terminal long
!!!system-decoration: s1,s2,s3,s4
!!!ENC: Marta Lawrence
!!!END: 2020-02-04
!!!URL-scan: https://polona.pl/item/melodiae-na-psalterz-polski,Nzk3MTM4ODQ/49 Scan on Polona
!!!IIIF: https://polona.pl/iiif/item/Nzk3MTM4ODQ/manifest.json
